public/assets/images/about/icons/05.svg

<svg width="60" height="60" viewBox="0 0 60 60" fill="none" xmlns="http://www.w3.org/2000/svg">
<path d="M29.0625 2.1377H30.9375V6.5627H29.0625V2.1377Z" fill="#0F62FE"/>
<path d="M49.6875 25.3125H54.1125V27.1875H49.6875V25.3125Z" fill="#0F62FE"/>
<path d="M5.8877 25.3125H10.3127V27.1875H5.8877V25.3125Z" fill="#0F62FE"/>
<path d="M43.25 40.834L44.5758 39.5082L47.7048 42.6371L46.3789 43.9629L43.25 40.834Z" fill="#0F62FE"/>
<path d="M12.2852 9.86328L13.611 8.53746L16.7399 11.6664L15.4141 12.9922L12.2852 9.86328Z" fill="#0F62FE"/>
<path d="M43.2529 11.6689L46.3819 8.54L47.7077 9.86582L44.5788 12.9948L43.2529 11.6689Z" fill="#0F62FE"/>
<path d="M45.9375 26.2499C45.937 23.6474 45.2992 21.0846 44.0798 18.7855C42.8604 16.4863 41.0966 14.5208 38.9423 13.0606C36.7881 11.6003 34.3091 10.6899 31.7218 10.4087C29.1345 10.1276 26.5178 10.4843 24.1002 11.4477C21.6826 12.4111 19.5377 13.9518 17.8529 15.9354C16.1681 17.9189 14.9947 20.2849 14.4352 22.8265C13.8757 25.3681 13.9471 28.0081 14.6432 30.5158C15.3393 33.0235 16.6389 35.3225 18.4284 37.2121C20.938 39.8146 22.3848 43.2608 22.485 46.8749C22.239 46.8788 22.0043 46.9793 21.8318 47.1547C21.6592 47.3301 21.5625 47.5663 21.5625 47.8124V53.4374C21.5625 53.9347 21.76 54.4116 22.1117 54.7632C22.4633 55.1148 22.9402 55.3124 23.4375 55.3124H26.3681C26.5753 56.1182 27.0446 56.8322 27.7021 57.342C28.3596 57.8519 29.168 58.1286 30 58.1286C30.832 58.1286 31.6404 57.8519 32.2979 57.342C32.9554 56.8322 33.4247 56.1182 33.6319 55.3124H36.5625C37.0598 55.3124 37.5367 55.1148 37.8883 54.7632C38.24 54.4116 38.4375 53.9347 38.4375 53.4374V47.8124C38.4375 47.5665 38.341 47.3304 38.1686 47.155C37.9962 46.9797 37.7618 46.8791 37.5159 46.8749C37.6511 43.2266 39.1249 39.7558 41.6559 37.1249C44.4135 34.1759 45.9445 30.2873 45.9375 26.2499ZM32.8125 53.4374C32.5639 53.4374 32.3254 53.5362 32.1496 53.712C31.9738 53.8878 31.875 54.1262 31.875 54.3749C31.875 54.8722 31.6775 55.3491 31.3258 55.7007C30.9742 56.0523 30.4973 56.2499 30 56.2499C29.5027 56.2499 29.0258 56.0523 28.6742 55.7007C28.3225 55.3491 28.125 54.8722 28.125 54.3749C28.125 54.1262 28.0262 53.8878 27.8504 53.712C27.6746 53.5362 27.4361 53.4374 27.1875 53.4374H23.4375V48.7499H36.5625V53.4374H32.8125ZM34.8853 27.0861L29.7188 32.2499C29.7188 30.4911 30.0159 27.959 31.5712 26.4036C33.5597 24.4152 37.1653 24.4733 38.6784 24.5999C38.8041 26.1111 38.8659 29.7186 36.8747 31.7071C35.3288 33.253 32.8172 33.5577 31.0622 33.5596L36.2137 28.409L34.8853 27.0861ZM35.625 46.8749H31.5938C30.2451 43.2198 29.6565 39.3279 29.8641 35.4374C30.0394 35.443 30.2166 35.4505 30.3759 35.4505C30.5353 35.4505 30.7078 35.4505 30.8569 35.4421H31.0181C33.1069 35.4421 36.1809 35.0493 38.1975 33.0318C41.43 29.8002 40.4897 23.8499 40.4475 23.5986C40.4156 23.4053 40.324 23.2268 40.1854 23.0882C40.0468 22.9497 39.8683 22.858 39.675 22.8261C39.4237 22.7849 33.4744 21.8465 30.2419 25.0761C29.9849 25.3375 29.75 25.6197 29.5397 25.9199C26.6334 23.7327 22.3406 24.2155 22.1438 24.239C21.9354 24.2641 21.7415 24.3584 21.5931 24.5068C21.4448 24.6552 21.3505 24.8491 21.3253 25.0574C21.3 25.2683 20.7319 30.2671 23.5819 33.1283C24.8055 34.2687 26.3479 35.0088 28.0031 35.2499C27.7796 39.192 28.3234 43.14 29.6044 46.8749H24.375C24.2712 42.7791 22.6358 38.8711 19.7916 35.9221C17.9953 34.0256 16.7628 31.6662 16.2322 29.1086C15.7015 26.5509 15.8938 23.896 16.7873 21.4414C17.6809 18.9869 19.2404 16.8297 21.2911 15.2118C23.3419 13.5938 25.8027 12.579 28.3978 12.2811C31.2563 11.9522 34.1469 12.5081 36.6795 13.8737C39.2122 15.2393 41.265 17.349 42.5609 19.918C43.8568 22.487 44.3334 25.3917 43.9265 28.2402C43.5196 31.0886 42.2487 33.7437 40.2853 35.8471C37.4252 38.8226 35.7655 42.75 35.625 46.8749ZM27.8438 32.0821C27.8391 32.5349 27.8513 32.9446 27.8728 33.2952C26.7684 33.0836 25.7444 32.5695 24.915 31.8102C23.2847 30.1733 23.1234 27.404 23.1506 26.0643C24.4191 26.0305 26.9822 26.1983 28.6378 27.6158C28.3804 28.2747 28.1889 28.9574 28.0659 29.654L26.2453 27.8333L24.9159 29.1561L27.8438 32.0821Z" fill="#0F62FE"/>
<path d="M12.2812 42.6338L15.4102 39.5048L16.736 40.8307L13.6071 43.9596L12.2812 42.6338Z" fill="#0F62FE"/>
</svg>

<svg xmlns="http://www.w3.org/2000/svg" width="60" height="60" fill="none" viewBox="0 0 60 60"><path fill="#0f62fe" d="M29.063 2.138h1.875v4.425h-1.875zm20.625 23.175h4.424v1.875h-4.425zm-43.8 0h4.425v1.875H5.888zM43.25 40.834l1.326-1.326 3.129 3.13-1.326 1.325zM12.285 9.863l1.326-1.326 3.129 3.13-1.326 1.325zm30.968 1.806 3.129-3.129 1.326 1.326-3.13 3.129zm2.685 14.581a15.937 15.937 0 1 0-27.51 10.962 14.5 14.5 0 0 1 4.057 9.663.937.937 0 0 0-.922.937v5.625a1.875 1.875 0 0 0 1.875 1.875h2.93a3.75 3.75 0 0 0 7.264 0h2.93a1.875 1.875 0 0 0 1.876-1.875v-5.625a.94.94 0 0 0-.922-.937 14.86 14.86 0 0 1 4.14-9.75 15.88 15.88 0 0 0 4.282-10.875M32.812 53.437a.94.94 0 0 0-.937.938 1.875 1.875 0 1 1-3.75 0 .937.937 0 0 0-.937-.938h-3.75V48.75h13.125v4.687zm2.073-26.35L29.72 32.25c0-1.759.297-4.291 1.852-5.846 1.989-1.989 5.594-1.93 7.107-1.804.126 1.511.188 5.119-1.803 7.107-1.546 1.546-4.058 1.85-5.813 1.853l5.152-5.151zm.74 19.788h-4.031a28.6 28.6 0 0 1-1.73-11.438c.175.006.353.014.512.014s.332 0 .48-.009h.162c2.089 0 5.163-.393 7.18-2.41 3.232-3.232 2.292-9.182 2.25-9.433a.94.94 0 0 0-.773-.773c-.251-.041-6.2-.98-9.433 2.25a6.6 6.6 0 0 0-.702.844c-2.907-2.187-7.2-1.705-7.396-1.681a.94.94 0 0 0-.819.818c-.025.211-.593 5.21 2.257 8.071a8.2 8.2 0 0 0 4.421 2.122 30.5 30.5 0 0 0 1.601 11.625h-5.229a16.38 16.38 0 0 0-4.583-10.953 14.062 14.062 0 0 1 8.606-23.64 14.063 14.063 0 0 1 11.887 23.565 16.74 16.74 0 0 0-4.66 11.028m-7.781-14.793a17 17 0 0 0 .029 1.213 6.07 6.07 0 0 1-2.958-1.485c-1.63-1.637-1.792-4.406-1.764-5.746 1.268-.034 3.831.134 5.487 1.552a10.7 10.7 0 0 0-.572 2.038l-1.82-1.82-1.33 1.322zM12.281 42.634l3.13-3.13 1.325 1.327-3.129 3.129z"/></svg>
